Adwaita++/actions/22/investment-delete.svg

<svg height="22" width="22" xmlns="http://www.w3.org/2000/svg">
  <g fill="#444">
    <path d="m11 3a8 8 0 0 0 -8 8 8 8 0 0 0 .0703125.976562c.0876355-.407282.3792881-.805341.7578125-1.023437l3.1582031-1.8222656c.7407551-.4272916 1.7160786-.1658654 2.1445313.5742187l-.0839844-.1464843 2.931641-1.6933594c.62633-.3618846 1.359854-.146585 1.849609.3496094l.152344-.0878907-.455078-.7949219c-.560986-.9784603.186443-2.2972081 1.322265-2.2988281a1.0001 1.0001 0 0 0 .001953 0h1.46875a8 8 0 0 0 -5.318359-2.0332031zm7.984375 7.5625-.480469.841797a1.0001 1.0001 0 0 0 0 .001953c-.162901.284249-.412196.475055-.691406.59375h.1875a1.0001 1.0001 0 0 1 .855469.484375 8 8 0 0 0 .144531-1.484375 8 8 0 0 0 -.015625-.4375zm-3.445313.292969-1.373046.794922c-.62652.36281-1.361415.147252-1.851563-.34961l-3.0566405 1.765625c-.6840522.395236-1.5289623.149465-1.9980469-.464844l-1.859375 1.074219a1.0001 1.0001 0 0 0 -.0019531 0c-.3816436.219898-.8775959.27467-1.2753906.142578-.3740061-.124192-.6442854-.376019-.828125-.667968a8 8 0 0 0 7.7050781 5.849609 8 8 0 0 0 3-.589844v-2.410156a1.0001 1.0001 0 0 1 -1-1v-1a1.0001 1.0001 0 0 1 1-1h1a1.0001 1.0001 0 0 1 1-1h.544922c-.27922-.119177-.528647-.311488-.691406-.595703v-.001953h-.001954z" opacity=".3"/>
    <path d="m14.849403 6.0324475a.52837956.53379665 0 0 0 -.456474.8013394l.949777 1.6618302-1.754464 1.0133925-.328125-.56808a.57148571.57148571 0 0 0 -.78125-.2098217l-3.7979916 2.1930791-.4151782-.71875a.57148571.57148571 0 0 0 -.7801343-.2087056l-3.1573659 1.8225446a.57152042.57152042 0 1 0 .5714286.989955l2.6629464-1.53683.4140623.717634a.57148571.57148571 0 0 0 .7812503.209822l3.7979914-2.193081.328125.569197a.57148571.57148571 0 0 0 .78125.208705l2.24442-1.2968735.811384 1.4196415a.52837956.53379665 0 0 0 .915178.0011l2.329241-4.0747322a.52837956.53379665 0 0 0 -.015625-.5580627.52837956.53379665 0 0 0 -.441964-.2433036z"/>
    <path d="m16 13v1h-2v1h6v-1h-2v-1zm-1 3v4h4v-4z"/>
  </g>
</svg>

<svg xmlns="http://www.w3.org/2000/svg" width="22" height="22" version="1.1">
 <defs>
  <style id="current-color-scheme" type="text/css">
   .ColorScheme-Text { color:#444444; } .ColorScheme-Highlight { color:#4285f4; }
  </style>
 </defs>
 <path style="fill:currentColor;opacity:0.3" class="ColorScheme-Text" d="M 11 3 A 8 8 0 0 0 3 11 A 8 8 0 0 0 3.0703125 11.976562 C 3.157948 11.56928 3.4496006 11.171221 3.828125 10.953125 L 6.9863281 9.1308594 C 7.7270832 8.7035678 8.7024067 8.964994 9.1308594 9.7050781 L 9.046875 9.5585938 L 11.978516 7.8652344 C 12.604846 7.5033498 13.33837 7.7186494 13.828125 8.2148438 L 13.980469 8.1269531 L 13.525391 7.3320312 C 12.964405 6.3535709 13.711834 5.0348231 14.847656 5.0332031 A 1.0001 1.0001 0 0 0 14.849609 5.0332031 L 16.318359 5.0332031 A 8 8 0 0 0 11 3 z M 18.984375 10.5625 L 18.503906 11.404297 A 1.0001 1.0001 0 0 0 18.503906 11.40625 C 18.341005 11.690499 18.09171 11.881305 17.8125 12 L 18 12 A 1.0001 1.0001 0 0 1 18.855469 12.484375 A 8 8 0 0 0 19 11 A 8 8 0 0 0 18.984375 10.5625 z M 15.539062 10.855469 L 14.166016 11.650391 C 13.539496 12.013201 12.804601 11.797643 12.314453 11.300781 L 9.2578125 13.066406 C 8.5737603 13.461642 7.7288502 13.215871 7.2597656 12.601562 L 5.4003906 13.675781 A 1.0001 1.0001 0 0 0 5.3984375 13.675781 C 5.0167939 13.895679 4.5208416 13.950451 4.1230469 13.818359 C 3.7490408 13.694167 3.4787615 13.44234 3.2949219 13.150391 A 8 8 0 0 0 11 19 A 8 8 0 0 0 14 18.410156 L 14 16 A 1.0001 1.0001 0 0 1 13 15 L 13 14 A 1.0001 1.0001 0 0 1 14 13 L 15 13 A 1.0001 1.0001 0 0 1 16 12 L 16.544922 12 C 16.265702 11.880823 16.016275 11.688512 15.853516 11.404297 L 15.853516 11.402344 L 15.851562 11.402344 L 15.539062 10.855469 z"/>
 <path style="fill:currentColor" class="ColorScheme-Text" d="m 14.849403,6.0324475 a 0.52837956,0.53379665 0 0 0 -0.456474,0.8013394 l 0.949777,1.6618302 -1.754464,1.0133925 -0.328125,-0.56808 A 0.57148571,0.57148571 0 0 0 12.478867,8.7311079 L 8.6808754,10.924187 8.2656972,10.205437 A 0.57148571,0.57148571 0 0 0 7.4855629,9.9967314 L 4.328197,11.819276 a 0.57152042,0.57152042 0 1 0 0.5714286,0.989955 l 2.6629464,-1.53683 0.4140623,0.717634 a 0.57148571,0.57148571 0 0 0 0.7812503,0.209822 l 3.7979914,-2.193081 0.328125,0.569197 a 0.57148571,0.57148571 0 0 0 0.78125,0.208705 l 2.24442,-1.2968735 0.811384,1.4196415 a 0.52837956,0.53379665 0 0 0 0.915178,0.0011 L 19.965474,6.8338138 A 0.52837956,0.53379665 0 0 0 19.949849,6.2757511 0.52837956,0.53379665 0 0 0 19.507885,6.0324475 Z"/>
 <path style="fill:currentColor" class="ColorScheme-Text" d="m 16,13 v 1 h -2 v 1 h 6 v -1 h -2 v -1 z m -1,3 v 4 h 4 v -4 z"/>
</svg>
